src/assets/filled/BagTick.svg

<svg width="24" height="24" viewBox="0 0 24 24"  xmlns="http://www.w3.org/2000/svg">
<path d="M19.24 5.57957H18.84L15.46 2.19957C15.19 1.92957 14.75 1.92957 14.47 2.19957C14.2 2.46957 14.2 2.90957 14.47 3.18957L16.86 5.57957H7.14L9.53 3.18957C9.8 2.91957 9.8 2.47957 9.53 2.19957C9.26 1.92957 8.82 1.92957 8.54 2.19957L5.17 5.57957H4.77C3.87 5.57957 2 5.57957 2 8.13957C2 9.10957 2.2 9.74957 2.62 10.1696C2.86 10.4196 3.15 10.5496 3.46 10.6196C3.75 10.6896 4.06 10.6996 4.36 10.6996H19.64C19.95 10.6996 20.24 10.6796 20.52 10.6196C21.36 10.4196 22 9.81957 22 8.13957C22 5.57957 20.13 5.57957 19.24 5.57957Z" />
<path d="M19.09 12H4.90995C4.28995 12 3.81995 12.55 3.91995 13.16L4.75995 18.3C5.03995 20.02 5.78995 22 9.11995 22H14.7299C18.0999 22 18.7 20.31 19.0599 18.42L20.07 13.19C20.19 12.57 19.72 12 19.09 12ZM14.88 16.05L11.63 19.05C11.49 19.18 11.3099 19.25 11.1199 19.25C10.9299 19.25 10.74 19.18 10.59 19.03L9.08995 17.53C8.79995 17.24 8.79995 16.76 9.08995 16.47C9.38995 16.18 9.85995 16.18 10.1599 16.47L11.1499 17.46L13.87 14.95C14.17 14.67 14.65 14.69 14.93 14.99C15.21 15.3 15.19 15.77 14.88 16.05Z" />
</svg>

<?xml version="1.0" encoding="UTF-8"?>
<svg width="24" height="24" viewBox="0 0 24 24" xmlns="http://www.w3.org/2000/svg">
 <path d="m19.24 5.5796h-0.4l-3.38-3.38c-0.27-0.27-0.71-0.27-0.99 0-0.27 0.27-0.27 0.71 0 0.99l2.39 2.39h-9.72l2.39-2.39c0.27-0.27 0.27-0.71 0-0.99-0.27-0.27-0.71-0.27-0.99 0l-3.37 3.38h-0.4c-0.9 0-2.77 0-2.77 2.56 0 0.97 0.2 1.61 0.62 2.03 0.24 0.25 0.53 0.38 0.84 0.45 0.29 0.07 0.6 0.08 0.9 0.08h15.28c0.31 0 0.6-0.02 0.88-0.08 0.84-0.2 1.48-0.80003 1.48-2.48 0-2.56-1.87-2.56-2.76-2.56z"/>
 <path d="m19.09 12h-14.18c-0.62 0-1.09 0.55-0.99 1.16l0.84 5.14c0.28 1.72 1.03 3.7 4.36 3.7h5.61c3.37 0 3.9701-1.69 4.33-3.58l1.0101-5.23c0.12-0.62-0.35-1.19-0.98-1.19zm-4.21 4.05-3.25 3c-0.14 0.13-0.3201 0.2-0.5101 0.2s-0.3799-0.07-0.5299-0.22l-1.5-1.5c-0.29-0.29-0.29-0.77 0-1.06 0.3-0.29 0.77-0.29 1.07 0l0.99 0.99 2.7201-2.51c0.3-0.28 0.78-0.26 1.06 0.04 0.28 0.31 0.26 0.78-0.05 1.06z"/>
</svg>
